!! 00000] TT[WS
!!!OTL: Shuoyang xiaodiao
!!!ARE: Asia, China, Shanxi Shuoyang
!! Ethnic Group: Han
!! WII, 71 (2)
!!!SCT: J0503
!!!YEM: Copyright 1995, estate of Helmut Schaffrath.
**kern
*ICvox
*Ivox
*M2/4
*k[f#c#g#]
*A:
{8.cc#
16ff#
8ee
8cc#
=1
8ee
4b
8cc#
=2
8.ee
16dd
8cc#
8b
=3
8ee
4.b}
=4
{8.cc#
16ff#
8ee
8cc#
=5
4b
8ee
8b
=6
8a
8g#
8b
16cc#
16g#
=7
2f#}
=8
{8b
16cc#
16b
4f#
=9
8b
8cc#
4f#
=10
8.ee
16dd
8cc#
8b
=11
8ee
8a
8b
8f#
=12
2e}
=13
{8ee
4b
8ee
=14
8cc#
8b
8a
16g#
16f#
=15
8b
4e
16f#
16e
=16
8d
4f#
8c#
=17
2B}
=18
{8ee
4b
8ee
=19
8cc#
8b
8g#
8f#
=20
2b
=21
4.e
16f#
16e
=22
8d
4f#
8c#
=23
2B}
==
!!!AGN: Xiaodiao. Qingge, Sichun
!!!ONB: ESAC (Essen Associative Code) Database: CHINA
!!!AMT: simple duple
!!!AIN: vox
!!!EED: Helmut Schaffrath
!!!EEV: 1.0
*-
